X: 021795
T: Brother's Pipes
S: B.Breathnach:"Ceol Rince na hEireann" IV/183 (gan ainm)
Z: B.Black
L: 1/8
M: 4/4
R: reel
K: D
FG|A2 DF A2 DF|A2 AF G2 FG|ADDE FGAB|=cBcA G2 FG|
A2 DF A2 DF|A2 AF G2 FG|ADDE FGAB|=cBcA G2 (3AB^c ||
d2 fd cd e2|BcdB AGFA|d2 fd cd e2|BcdB A2 (3ABc|
d2 fd cd e2|BcdB AGFA|d2 ef gfge|dBAG FAdB ||
